pointercrate-demonlist-pages/static/images/flags/no/18.svg

<?xml version="1.0" encoding="UTF-8"?>
<!-- Created with Inkscape (http://www.inkscape.org/) -->
<svg id="svg3657" width="200" height="247.53" version="1.0" xmlns="http://www.w3.org/2000/svg">
 <g id="layer1" transform="translate(-348.5 -532.4)">
  <path id="path2640" d="m348.97 532.87v89.752c0 89.919 99.515 156.82 99.515 156.82s99.533-66.904 99.533-156.82v-89.752h-199.05z" fill="none"/>
  <path id="path2642" d="m348.97 532.87v89.752c0 89.919 99.515 156.82 99.515 156.82s99.533-66.904 99.533-156.82v-89.752h-199.05z" fill="#ffd90f" stroke="#000" stroke-miterlimit="10.433" stroke-width=".95232"/>
  <path id="path2644" d="m513 637.31c1.1742-1.9257-0.34391-2.303-0.69443-2.3188-1.3132-0.05937-2.7751 0.13767-2.8768 1.7856l-1.8848 33.133-1.984 0.3968 1.2896-35.911c0.09279-2.5838-5.5192-4.0355-5.1584-2.6784 3.4853 13.112 3.4614 28.175-3.6704 40.077l-25.99 5.1584c-0.32922 0.06536-1.1687 0.99432-1.5872 1.7856-0.15072 0.285-1.1185 2.0567 0.79364 1.8848 0.22119-1.0793 0.96756-1.7942 1.8848-1.984l23.014-4.7616c-5.6375 5.8666-10.2 6.8515-12.698 6.944l-13.392 0.496c-36.97-38.41 5.5726-86.668 37.498-113.09h2.976c1.8517 0 2.4065-2.8415 0.99204-2.8768l-63.587-1.5872-0.69444-18.154-1.6864-0.3968v1.984c-1.0294 0-1.6333 0.2032-2.2816 0.64482-3.1955 2.1765-5.5171-0.2176-9.1265-0.74402-2.2832-0.33299-4.9575 1.7837-5.3568 2.0832-0.39677 0.29763-2.1093 1.6508-5.952-1.488-1.1119-0.90827-3.3618-1.488-5.8528-1.488-4.341 0-7.721 7.3484-10.714 3.0752-0.3968 0.72812-0.86922 2.7671 2.976 3.1744 2.4101 0.25364 5.4304-1.6262 7.3408-1.5872 4.4918 0.0917 4.2748 1.4996 5.456 2.5792 0.54699 0.51793 4.598 3.0832 8.3328 1.1904 2.9966-1.5395 3.0748-1.4663 4.0672-1.3888 0.96337 0.1307 1.1596 1.9476 5.5552 2.1824 0.43699 0.03656 1.2332 2.6358 5.3568 3.0752l-0.09923 5.1584-58.032-1.488c-1.5998-0.04102-1.1765 2.976-0.3968 2.976h4.0672c-3.8406 70.847 33.185 106.49 45.235 116.16-21.006-0.73844-28.966-2.0336-33.53-2.5792-14.498-1.7336-19.7-23.712-19.939-24.701l8.0352-8.5312c1.0888-1.156 1.361-2.2441-0.0992-2.1824l-7.0432 0.2976c-1.3798 0.05832-0.81839 2.0336-0.59523 2.5792 0 0-0.25576 0.31001-1.2896 0.2976-0.64279-11.353 1.5128-22.022 1.984-23.411 0.86912-2.5618 0.6273-3.0465-0.0992-3.5712l-3.5712-2.5792c-1.6459-1.4571-2.2474-0.99365-2.2816-0.5952-0.22319 2.6022 0.10949 16.202 0.5952 30.455-0.83055 0.00412-1.1904-0.496-1.1904-0.496-0.10288-1.7087-0.67752-2.48-1.2896-2.48h-5.2576c-1.9239 0-0.496 1.488-0.496 1.488 1.8024 2.1937 7.4645 7.8704 8.432 8.8288l1.2896 31.645c0.4568 11.209 10.218 13.104 13.194 13.103l103.27-0.00892c7.4131-6.4e-4 7.8369-7.936 7.8369-7.936l1.488-19.046 1.8848-0.3968-1.488 22.618c-0.16221 2.4661 1.1458 3.441 3.2736 3.5712 2.1402 0.131 3.8557-1.3123 4.0672-2.976l1.488-11.706c0.36061-5.0298-1.1905-7.44-1.6864-8.1344-2.699-3.7788-2.4312-6.8727-2.3808-7.936l0.99201-20.931c0.29865-6.3014 1.0462-8.2932 1.2896-8.6924zm-67.555-88.524-0.09917 8.1344s-4.2656-1.0133-4.2656-4.3648c0-3.3515 4.3648-3.7696 4.3648-3.7696zm-2.48 118.05-0.1984 14.582-4.7616-0.0992c-5.9579-7.6583-5.2068-14.483 4.96-14.483zm4.0672 0.7936c10.03 3.5427 17.171 11.129 19.542 13.888h-19.84l0.2976-13.888z"/>
 </g>
</svg>

<?xml version="1.0" encoding="UTF-8" standalone="no"?>
<!-- Created with Inkscape (http://www.inkscape.org/) -->
<svg
   xmlns:svg="http://www.w3.org/2000/svg"
   xmlns="http://www.w3.org/2000/svg"
   version="1.0"
   width="200"
   height="247.52617"
   id="svg3657">
  <defs
     id="defs3659" />
  <g
     transform="translate(-348.4981,-532.39517)"
     id="layer1">
    <path
       d="M 348.97426,532.87133 L 348.97426,622.62298 C 348.97426,712.54164 448.48906,779.44518 448.48906,779.44518 C 448.48906,779.44518 548.02194,712.54164 548.02194,622.62298 L 548.02194,532.87133 L 348.97426,532.87133 z"
       id="path2640"
       style="font-style:normal;font-variant:normal;font-weight:normal;font-stretch:normal;letter-spacing:normal;word-spacing:normal;text-anchor:start;fill:none;fill-opacity:1;stroke:none;stroke-width:0.60934383;stroke-linecap:butt;stroke-linejoin:miter;stroke-miterlimit:10.43299961;stroke-dasharray:none;stroke-dashoffset:0;stroke-opacity:1" />
    <path
       d="M 348.97426,532.87133 L 348.97426,622.62298 C 348.97426,712.54164 448.48906,779.44518 448.48906,779.44518 C 448.48906,779.44518 548.02194,712.54164 548.02194,622.62298 L 548.02194,532.87133 L 348.97426,532.87133 z"
       id="path2642"
       style="font-style:normal;font-variant:normal;font-weight:normal;font-stretch:normal;letter-spacing:normal;word-spacing:normal;text-anchor:start;fill:#ffd90f;fill-opacity:1;fill-rule:nonzero;stroke:#000000;stroke-width:0.95232344;stroke-linecap:butt;stroke-linejoin:miter;stroke-miterlimit:10.43299961;stroke-dasharray:none;stroke-dashoffset:0;stroke-opacity:1" />
    <path
       d="M 512.99938,637.31359 C 514.17354,635.38786 512.65547,635.01062 512.30495,634.99478 C 510.9917,634.93541 509.52982,635.13245 509.42818,636.78038 L 507.54334,669.9133 L 505.55933,670.3101 L 506.84896,634.39957 C 506.94175,631.81582 501.3298,630.3641 501.69054,631.72116 C 505.17586,644.8332 505.15199,659.89622 498.0201,671.7981 L 472.02961,676.95652 C 471.70039,677.02188 470.86095,677.95084 470.4424,678.74213 C 470.29168,679.02713 469.32387,680.7988 471.23604,680.62694 C 471.45723,679.5476 472.2036,678.8327 473.12084,678.64293 L 496.13533,673.88131 C 490.49786,679.74791 485.93544,680.73284 483.43768,680.82534 L 470.0456,681.32134 C 433.07527,642.91141 475.61822,594.6529 507.54334,568.23294 L 510.51934,568.23294 C 512.37104,568.23294 512.92584,565.39143 511.51138,565.35613 L 447.92396,563.76892 L 447.22952,545.61526 L 445.54315,545.21846 L 445.54315,547.20246 C 444.51378,547.20246 443.90985,547.40566 443.26154,547.84728 C 440.06605,550.02378 437.74442,547.62968 434.13508,547.10326 C 431.85191,546.77027 429.17754,548.88696 428.77826,549.18647 C 428.38149,549.4841 426.66899,550.83726 422.82624,547.69847 C 421.7143,546.7902 419.46447,546.21046 416.97345,546.21046 C 412.63244,546.21046 409.25248,553.55888 406.25981,549.28567 C 405.86301,550.01379 405.39059,552.0528 409.23582,552.46008 C 411.64593,552.71372 414.66622,550.83386 416.57662,550.87288 C 421.0684,550.96458 420.85144,552.37253 422.03266,553.45209 C 422.57965,553.97002 426.6307,556.5353 430.36546,554.64249 C 433.36201,553.103 433.44029,553.17623 434.43271,553.25368 C 435.39608,553.38438 435.59232,555.20128 439.98793,555.4361 C 440.42492,555.47266 441.22109,558.07194 445.34475,558.5113 L 445.24552,563.66972 L 387.21335,562.18172 C 385.61357,562.1407 386.03685,565.15773 386.81655,565.15773 L 390.88373,565.15773 C 387.04317,636.0043 424.06826,671.6518 436.11908,681.32134 C 415.11321,680.5829 407.15261,679.28775 402.5894,678.74213 C 388.09151,677.00858 382.88983,655.03001 382.65013,654.04124 L 390.68536,645.51001 C 391.77421,644.35396 392.04639,643.2659 390.58616,643.3276 L 383.54293,643.6252 C 382.16317,643.68352 382.72454,645.6588 382.9477,646.20442 C 382.9477,646.20442 382.69194,646.51443 381.65813,646.50202 C 381.01534,635.1493 383.17093,624.47954 383.64213,623.09073 C 384.51125,620.52895 384.26943,620.04422 383.54293,619.51952 L 379.97172,616.94031 C 378.32579,615.48319 377.7243,615.94666 377.69011,616.34511 C 377.46692,618.9473 377.7996,632.54673 378.28531,646.79962 C 377.45476,646.80374 377.09491,646.30362 377.09491,646.30362 C 376.99203,644.59496 376.41739,643.8236 375.80527,643.8236 L 370.54769,643.8236 C 368.62381,643.8236 370.05169,645.31164 370.05169,645.31161 C 371.85411,647.50535 377.51615,653.18202 378.48371,654.14044 L 379.77329,685.78536 C 380.23009,696.99414 389.99159,698.88898 392.96697,698.88872 L 496.2345,698.8798 C 503.64764,698.87916 504.07136,690.94377 504.07136,690.94377 L 505.55933,671.8973 L 507.44417,671.5005 L 505.95613,694.11818 C 505.79392,696.58429 507.10194,697.55915 509.22977,697.6894 C 511.36996,697.8204 513.08551,696.3771 513.29696,694.71338 L 514.78499,683.00774 C 515.1456,677.97795 513.59452,675.56772 513.09859,674.87332 C 510.39958,671.09453 510.66737,668.00062 510.71774,666.93729 L 511.70975,646.00602 C 512.0084,639.70465 512.75597,637.71277 512.99938,637.31359 z M 445.44392,548.78967 L 445.34475,556.9241 C 445.34475,556.9241 441.07913,555.9108 441.07913,552.55928 C 441.07913,549.20777 445.44392,548.78967 445.44392,548.78967 z M 442.96394,666.83809 L 442.76554,681.42054 L 438.00392,681.32134 C 432.04603,673.66304 432.79712,666.83809 442.96394,666.83809 z M 447.03112,667.63169 C 457.06093,671.1744 464.20234,678.7608 466.57362,681.51974 L 446.73352,681.51974 L 447.03112,667.63169 z"
       id="path2644"
       style="font-style:normal;font-variant:normal;font-weight:normal;font-stretch:normal;letter-spacing:normal;word-spacing:normal;text-anchor:start;fill:#000000;fill-opacity:1;fill-rule:nonzero;stroke:none;stroke-width:0.1;stroke-linecap:butt;stroke-linejoin:miter;stroke-miterlimit:10.43299961;stroke-dasharray:none;stroke-dashoffset:0;stroke-opacity:1" />
  </g>
</svg>
